X:1
T:I KNOW THAT MY REDEEMER LIVES
T:Arranged for Children's Voices
T:G.F. Handel Arr. D. Schaller
T:The Holy Bible Job 19:25-26
T:This arrangement is in the public domain
T:This arrangement is in the public domain
T:This arrangement is in the public domain
T:This arrangement is in the public domain
Z:This arrangement is in the public domain
%%score 1 { ( 2 4 ) | ( 3 5 ) }
L:1/8
Q:1/4=84
M:3/4
K:C
V:1 treble nm="Voice"
V:2 treble nm="Piano"
V:4 treble 
V:3 bass 
V:5 bass 
V:1
"^Larghetto" z6 | z6 | z6 | z6 | z6 | z6 | z6 | z6 | z6 | z6 | z6 | z6 | z6 | z6 | z6 | z6 | z6 | %17
w: |||||||||||||||||
 z2 z2 G2 | c4 (E>D) | C4 A2 | (F3 E) F2 | E4 z2 | z6 | z6 | z6 | z2 G2 G2 | c4 d2 | G6- | %28
w: I|know that _|my Re-|deem- * er|lives.||||and that|He shall|stand|
 !breath!G3 (E D)C | A6- | !breath!A3 (^F ED) | (c6- | !breath!c3 d BA | B) G ^F3 G | G6 | z6 | %36
w: _ at _ the|lat-|* ter _ _|day|_ _ _ _|* up- on the|earth.||
 z6 | z6 | z2 z2 G2 | c4 (E>D) | C4 A2 | F4 E2 | !breath!D4 D2 | E3 (E DC) | G6- | G6- | %46
w: ||I|know that _|my Re-|deem- er|lives, and|He shall _ _|stand|_|
 !breath!G4 A>G | A4- AB | !breath!c3 C DE | (F6- | !breath!F3 G ED | E) F D3 C | C3 z z2 | z6 | %54
w: * at the|lat- * ter|day up- on the|earth,|_ _ _ _|* up- on the|earth.||
 z6 | z6 | z6 | z2 C2 E2 | G4 G2 | A2 B4 | c2 C2 z2 | C2 E2 F2 | G4 A2 | F2 E4 | !breath!D4 d2 | %65
w: |||And though|death de-|stroys this|bo- dy,|Yet in my|flesh shall|I see|God, yet|
 A4 B2 | (c2 B2) A2 | B2 A4 | G4 z2 | z6 | z6 | z6 | z2 z2 D2 | E2 E2 F2 | G2 G2 A2 | B2 B2 c2 | %76
w: in my|flesh _ shall|I see|God.||||For|now is Christ|ris- en, for|now is Christ|
 d2 !breath!e4 | (A2 B2) c2 | (E2 D2) z2 | z6 | z4 F2 | E2 D2 C2 | !breath!B4 c2 | (E2 D3) C | %84
w: ris- en|from _ the|dead _||the|first- fruits of|them, of|them _ that|
 C4 z2 | z6 | z6 | z6 | z6 | z6 | z6 | z6 | z6 | z6 | z6 | z6 |] %96
w: sleep.||||||||||||
V:2
 z2 z2 G2 | c4 TE>D | C4 A2 | F3 E F2 | E2 z e Tdc | G6- | G3 z/ E/ TD>C | c6- | c2 z C B,A, | %9
 G,>A, G,>A, G,>A, | F,>G, F,>G, F,>G, | E,3 z/ E/ TD>C | B,2 z3/2 f/ e>d | (3edc B3 c | %14
 (C3 D EF) | G3 A/B/ cB/A/ | G/A/F E2 D>C | C4 G2 | c4 E>D | C4 A2 | F3 E F2 | E4 G2 | c4 E>D | %23
 C4 A2 | F3 E F2 | E2 G2 G2 | c4 d2 | G6- | G3 E DC | A6- | A3 ^F ED | c6- | c3 d BA | B G ^F3 G | %34
 G4 d2 | g4 [DB]>[CA] | G4 e2 | c3 B c2 | B4 G2 | c4 E>D | C4 A2 | F4 E2 | D4 D2 | E3 E DC | G6- | %45
 G6- | G4 A>G | A4- (AB) | c3 (C DE) | F6- | F3 G ED | EF D3 C | C3 c BA | G>A G>A G>A | %54
 F>G F>G F>F | E3 D (3CDE | (3FED TB,3 C | C2 C2 E2 | G4 G2 | A2 B4 | c2 C2 z2 | C2 E2 F2 | G4 A2 | %63
 F2 E4 | D4 d2 | A4 B2 | c2 B2 A2 | B2 A4 | G4 g2 | ^f>g f>g f>g | c4 f2 | (3edc e2 d>c | c4 D2 | %73
 E2 E2 F2 | G2 G2 A2 | B2 B2 c2 | d2 e4 | A2 B2 c2 | E2 D2 G2 | ^F>G F>G F>G | [B,D]4 F2 | %81
 E2 D2 C2 | B4 c2 | E2 D3 C | C4 G2 | c4 E>D | C4 A2 | F3 E F2 | E2 z e dc | G2 z C B,A, | %90
 G,3 z/ f/ e>d | (3edc B3 c | (C3 D EF) | G3 A/B/ cB/A/ | G/A/F E2 D>C | C6 |] %96
V:3
 C,4 z2 | z2 z2 G,>F, | E,4 F,2 | D,,4 G,,2 | C,4 z2 | z2 z E, D,C, | G,,4 z2 | z2 z A,, G,,F,, | %8
 E,,2 z [E,G,] [D,F,][C,E,] | [B,,D,]4 [C,E,]2 | [B,,D,]4 G,,2 | C,2 F,,4 | [D,G,]2 B,,2 C,2 | %13
 F,2 G,2 G,,2 | E,4 A,2 | E,,6 | z [F,A,] G,2 G,,2 | C,4 z2 | x6 | E,4 x2 | x6 | x6 | z2 z2 G,>F, | %23
 E,4 F,2 | A,4 G,2 | G,4 G,2 | A,4 G,2- | G,4 z2 | D,2 E,2 G,2 | z2 z C, B,,A,, | ^F,4 z2 | %31
 z2 z E, A,G, | A,4 G,2 | C,2 D,2 D,,2 | G,,4 z2 | z2 z2 D,2 | E,4 C,2 | A,,4 ^F,2 | G,4 z2 | %39
 z2 z2 G,>F, | E,4 F,2 | D,4 C,2 | G,,4 z2 | z6 | z6 | z2 z G, F,E, | D,4 z2 | z2 z C B,A, | %48
 G,2 z2 z2 | z2 z G, F,2 | G,6 | A,2 D,2 G,2 | E,3 E, D,C, | B,,2 z2 C,2 | B,,2 G,2 G,,2 | %55
 C,2 G,,2 A,,2 | F,,2 D,2 F,2 | [C,E,G,]2 z4 | z2 z2 E,2 | C2 [F,D]4 | G,4 z2 | E,2 G,2 F,2 | %62
 E,2 G,2 F,2 | F,2 G,4 | G,,4 B,,2 | C,4 D,2 | E,4 E,2 | D,4 D,,2 | G,,4 z2 | [A,C]6 | A,,4 C2 | %71
 [G,C]4 G,,2 | C,4 G,,2 | C,4 D,2 | E,4 F,2 | F,4 G,2 | G,6 | F,4 G,2 | G,4 z2 | A,,6 | B,,4 B,,2 | %81
 C,2 F,4 | F,,4 E,,2 | G,,4 G,,2 | [C,E,]4 z2 | z2 z2 G,>F, | E,4 F,2 | D,4 G,,2 | C,4 z2 | %89
 z2 z G, F,E, | D,3 z/ G,,/ C,2 | F,2 G,2 G,,2 | E,4 A,2 | E,,6 | z [F,A,] G,2 G,,2 | C,6 |] %96
V:4
 x6 | x4 B,2 | C6 | [A,C]4 [G,B,]2 | [G,C]2 x4 | z2 z C B,C | [B,D]3 x3 | z2 z F ED | C2 x4 | x6 | %10
 x6 | x2 A,4 | x2 G4 | A2 D3 C | x6 | C6 | z C C2 B,3/2 x/ | x6 | x2 x2 B,2 | x6 | A,4 B,2 | x6 | %22
 z2 z2 B,2 | C4 C2 | D4 D2 | C4 E2 | E2 F4 | x3 E TDC | G,4 z2 | z2 z E DC | A,4 z2 | z2 z G ^FE | %32
 D4 D2 | E2 A,2 DC | B,4 x2 | x4 ^F2 | B,4 [EG]2 | [EA]4 [DA]2 | [DG]4 x2 | z2 z2 B,2 | C6- | %41
 C2 B,2 [G,C]2 | [G,B,]2 z2 z2 | x6 | z2 z E TDC | [G,G]3 C B,C | B,4 z2 | z2 z F ED | C2 x2 x2 | %49
 z2 z C B,A, | D4 C2- | C4 B,2 | x3 G FE | D2 z2 E2 | D2 D2 B,2 | C2 B,2 A,2 | A,2 G,4 | x6 | %58
 x2 x2 [CE]2 | F2 F4 | E2 x2 x2 | C4 B,2 | C4 C2 | B,2 C4 | B,4 [DG]2 | [EG]4 [DG]2 | %66
 [CG]2 [DG]2 [CG]2 | [DG]2 [C^F]4 | B,4 z2 | c2 c2 c2 | F6 | G4 F2 | E4 B,2 | G,4 B,2 | C4 [CF]2 | %75
 [DF]4 [CG]2 | G6 | C2 D2 E2 | C2 B,2 x2 | C6 | x4 D2 | C2 A,4 | D4 G2 | C4 B,2 | x6 | x2 x2 B,2 | %86
 C4 C2 | A,4 B,2 | C2 x4 | x6 | x3 x/ [GB]/ [Gc]2 | A2 D3 C | x6 | C6 | z C C2 B,3/2 x/ | x6 |] %96
V:5
 x6 | x2 x2 G,,2 | A,,4 F,,2 | x6 | x6 | x6 | x6 | x6 | x6 | x6 | x6 | x6 | x6 | x6 | %14
 A,,2 G,,2 F,,2 | x6 | x6 | x6 | z2 z2 G,,2 | A,,4 F,,2 | D,,4 G,,2 | C,4 z2 | x2 x2 G,,2 | %23
 A,,4 F,,2 | D,,4 B,,2 | C,4 C,2 | A,,4 B,,2 | C,4 x2 | B,,2 C,2 E,2 | x6 | D,4 z2 | x6 | ^F,4 z2 | %33
 x6 | x6 | x6 | x6 | x6 | x6 | x4 G,,2 | A,,4 F,,2 | D,,4 C,,2 | x6 | x6 | x6 | z2 z E, D,C, | %46
 G,,4 x2 | x2 x A, G,F, | E,2 x4 | x2 x E, D,C, | B,,4 C,2 | F,,2 G,,2 G,,2 | C,3 x x2 | x6 | x6 | %55
 x6 | x2 G,,2 G,,2 | x6 | x6 | A,2 D,4 | C,4 x2 | C,4 D,2 | E,4 F,2 | D,2 C,4 | x6 | x6 | x6 | x6 | %68
 x6 | x6 | x4 A,2 | x6 | x6 | x6 | x6 | D,4 E,2 | B,,2 C,4 | F,4 C,2 | G,,4 x2 | x6 | x6 | x6 | %82
 x6 | x6 | x6 | x2 x2 G,,2 | A,,4 F,,2 | D,,4 x2 | x6 | x2 x E, D,C, | B,,3 x/ x/ x2 | x6 | %92
 A,,2 G,,2 F,,2 | x6 | x6 | x6 |] %96

